icons/looker-dark.svg

<svg width="256" height="256" viewBox="0 0 256 256" fill="none" xmlns="http://www.w3.org/2000/svg">
<path d="M196 0H60C26.8629 0 0 26.8629 0 60V196C0 229.137 26.8629 256 60 256H196C229.137 256 256 229.137 256 196V60C256 26.8629 229.137 0 196 0Z" fill="#282828"/>
<g clip-path="url(#clip0_163_255)">
<path d="M127.131 41C121.482 41.0025 116.295 44.1187 113.64 49.1045C110.985 54.0903 111.295 60.1336 114.446 64.8217L120.977 58.2998C120.761 57.6492 120.652 56.9679 120.655 56.2824C120.655 52.7211 123.542 49.8341 127.103 49.8341C130.664 49.8341 133.551 52.7211 133.551 56.2824C133.551 59.8437 130.664 62.7306 127.103 62.7306C126.421 62.7321 125.742 62.6233 125.095 62.4082L118.573 68.9302C124.004 72.6138 131.181 72.4186 136.404 68.4454C141.627 64.4721 143.73 57.6078 141.629 51.3905C139.529 45.1733 133.693 40.9913 127.131 41Z" fill="#34A853"/>
<path d="M121.051 85.539C121.061 80.3766 119.389 75.3514 116.288 71.2239L107.814 79.6895C110.464 84.5371 109.51 90.5626 105.492 94.3547L110.098 105.611C116.922 101.216 121.048 93.6562 121.051 85.539Z" fill="#FBBC04"/>
<path d="M97.3676 97.6893H97.1465C91.9483 97.6898 87.3247 94.3858 85.6412 89.4677C83.9577 84.5497 85.5867 79.1054 89.6948 75.9202C93.8029 72.7351 99.4814 72.5136 103.825 75.3692L112.217 66.9772C104.057 60.3617 92.5331 59.8514 83.8201 65.7197C75.1071 71.588 71.2486 82.4585 74.3118 92.5069C77.375 102.555 86.6415 109.425 97.1465 109.434C98.7674 109.435 100.384 109.275 101.973 108.955L97.3676 97.6893Z" fill="#EA4335"/>
<path d="M127.453 107.426C122.149 107.421 116.873 108.194 111.793 109.72L118.508 126.126C121.432 125.402 124.432 125.037 127.444 125.039C144.894 125.044 159.911 137.375 163.312 154.491C166.713 171.607 157.55 188.742 141.426 195.417C125.303 202.092 106.71 196.45 97.0161 181.939C87.3225 167.429 89.2283 148.091 101.568 135.752C104.143 133.186 107.082 131.013 110.292 129.304L103.65 112.944C78.8926 125.069 67.1709 153.838 76.4048 179.812C85.6388 205.786 112.89 220.7 139.745 214.477C166.6 208.253 184.513 182.872 181.38 155.484C178.248 128.096 155.066 107.416 127.499 107.417L127.453 107.426Z" fill="#4285F4"/>
</g>
<defs>
<clipPath id="clip0_163_255">
<rect width="175" height="175" fill="white" transform="translate(40 41)"/>
</clipPath>
</defs>
</svg>

<svg xmlns="http://www.w3.org/2000/svg" width="256" height="256" fill="none"><path fill="#282828" d="M196 0H60C26.863 0 0 26.863 0 60v136c0 33.137 26.863 60 60 60h136c33.137 0 60-26.863 60-60V60c0-33.137-26.863-60-60-60"/><g clip-path="url(#clip0_163_255)"><path fill="#34A853" d="M127.131 41a15.292 15.292 0 0 0-12.685 23.822l6.531-6.522a6.3 6.3 0 0 1-.322-2.018 6.448 6.448 0 1 1 4.44 6.126l-6.522 6.522A15.283 15.283 0 1 0 127.131 41"/><path fill="#FBBC04" d="M121.051 85.539a23.76 23.76 0 0 0-4.763-14.315l-8.474 8.465a12.15 12.15 0 0 1-2.322 14.666l4.606 11.256a23.89 23.89 0 0 0 10.953-20.072"/><path fill="#EA4335" d="M97.368 97.69h-.221a12.16 12.16 0 1 1 6.678-22.32l8.392-8.393a23.896 23.896 0 1 0-15.07 42.457 24.4 24.4 0 0 0 4.826-.479z"/><path fill="#4285F4" d="M127.453 107.426a54.3 54.3 0 0 0-15.66 2.294l6.715 16.406a37 37 0 0 1 8.936-1.087c17.45.005 32.467 12.336 35.868 29.452s-5.762 34.251-21.886 40.926-34.716 1.033-44.41-13.478-7.788-33.848 4.552-46.187a37 37 0 0 1 8.724-6.448l-6.642-16.36c-24.757 12.125-36.48 40.894-27.245 66.868s36.485 40.888 63.34 34.665c26.855-6.224 44.768-31.605 41.635-58.993-3.132-27.388-26.314-48.068-53.881-48.067z"/></g><defs><clipPath id="clip0_163_255"><path fill="#fff" d="M40 41h175v175H40z"/></clipPath></defs></svg>
